X: 20903
M: 2/4
L: 1/16
K: F
V: 1 name="3"
(cf) |\
a2ag fefd | c6 (ef) | .g2.g2 .c'2.c'2 | a4 f2g[a_e] |\
babc' d'4 & d3c BABd | a^gab c'4 & c3B A^GAc | g^fga b2ge | g4 f2 H|]
ef & z2 |\
g6 ab | c'6 ba | g6 ag | fefa c2ef |\
g6 ab | c'6 ba | g6 ag | g^fag "^D.C."=f2 |]


